;FLAVOR:Marlin
;TIME:2298
;Filament used: 1.96548m
;Layer height: 0.28
;MINX:93
;MINY:68.01
;MINZ:0.28
;MAXX:127
;MAXY:152
;MAXZ:40.04
;TARGET_MACHINE.NAME:Creality Ender-5
;Generated with Cura_SteamEngine 5.6.0
M140 S70
M105
M190 S70
M104 S240
M105
M109 S240
M82 ;absolute extrusion mode
M201 X500.00 Y500.00 Z100.00 E5000.00 ;Setup machine max acceleration
M203 X500.00 Y500.00 Z10.00 E50.00 ;Setup machine max feedrate
M204 P500.00 R1000.00 T500.00 ;Setup Print/Retract/Travel acceleration
M205 X8.00 Y8.00 Z0.40 E5.00 ;Setup Jerk
M220 S100 ;Reset Feedrate
M221 S100 ;Reset Flowrate

G28 ;Home

G92 E0 ;Reset Extruder
G1 Z2.0 F3000 ;Move Z Axis up
G1 X10.1 Y20 Z0.28 F5000.0 ;Move to start position
G1 X10.1 Y200.0 Z0.28 F1500.0 E15 ;Draw the first line
G1 X10.4 Y200.0 Z0.28 F5000.0 ;Move to side a little
G1 X10.4 Y20 Z0.28 F1500.0 E30 ;Draw the second line
G92 E0 ;Reset Extruder
G1 Z2.0 F3000 ;Move Z Axis up

G92 E0
G92 E0
G1 F2700 E-5
;LAYER_COUNT:143
;LAYER:0
M107
G0 F6000 X96.41 Y74.826 Z0.28
;TYPE:SKIRT
G1 F2700 E0
G1 F900 X96.785 Y74.353 E0.02811
G1 X97.383 Y73.639 E0.07147
G1 X97.996 Y72.976 E0.11352
G1 X98.666 Y72.361 E0.15587
G1 X99.342 Y71.796 E0.19689
G1 X99.851 Y71.391 E0.22718
G1 X100.636 Y70.824 E0.27227
G1 X101.334 Y70.401 E0.31028
G1 X102.103 Y69.98 E0.3511
G1 X102.67 Y69.688 E0.3808
G1 X103.582 Y69.27 E0.42751
G1 X104.313 Y69.005 E0.46372
G1 X105.174 Y68.732 E0.50578
G1 X105.832 Y68.543 E0.53765
G1 X106.742 Y68.326 E0.58121
G1 X107.634 Y68.189 E0.62324
G1 X108.493 Y68.097 E0.66346
G1 X109.109 Y68.046 E0.69225
G1 X110.077 Y68.01 E0.73735
G1 X110.888 Y68.045 E0.77515
G1 X111.441 Y68.09 E0.80099
G1 X112.445 Y68.201 E0.84802
G1 X113.37 Y68.348 E0.89163
G1 X114.23 Y68.558 E0.93285
G1 X115.098 Y68.814 E0.97499
G1 X115.666 Y68.997 E1.00278
G1 X116.543 Y69.322 E1.04633
G1 X117.288 Y69.669 E1.0846
G1 X118.127 Y70.105 E1.12863
G1 X118.677 Y70.409 E1.15789
G1 X119.504 Y70.918 E1.20311
G1 X120.188 Y71.421 E1.24264
G1 X120.917 Y72.008 E1.28622
G1 X121.387 Y72.409 E1.31499
G1 X122.097 Y73.071 E1.36019
G1 X122.644 Y73.671 E1.398
G1 X123.211 Y74.349 E1.43916
G1 X123.614 Y74.856 E1.46931
G1 X124.144 Y75.587 E1.51136
G1 X124.612 Y76.358 E1.55335
G1 X125.016 Y77.098 E1.59261
G1 X125.322 Y77.692 E1.62373
G1 X125.727 Y78.573 E1.66888
G1 X126.002 Y79.326 E1.7062
G1 X126.267 Y80.167 E1.74726
G1 X126.457 Y80.831 E1.77942
G1 X126.674 Y81.741 E1.82298
G1 X126.809 Y82.62 E1.86439
G1 X126.902 Y83.486 E1.90495
G1 X126.947 Y84.027 E1.93023
G1 X126.984 Y84.993 E1.97524
G1 X126.952 Y85.773 E2.01159
G1 X126.88 Y86.699 E2.05484
G1 X126.799 Y87.45 E2.09001
G1 X126.655 Y88.36 E2.13292
G1 X126.376 Y89.734 E2.1982
G1 X125.893 Y92.321 E2.32074
G1 X125.509 Y94.782 E2.43672
G1 X125.19 Y97.269 E2.55348
G1 X124.938 Y99.807 E2.67224
G1 X124.765 Y102.255 E2.78651
G1 X124.655 Y104.829 E2.90648
G1 X124.619 Y107.334 E3.02313
G1 X124.655 Y109.829 E3.13932
G1 X124.762 Y112.382 E3.25831
G1 X124.937 Y114.849 E3.37347
G1 X125.186 Y117.366 E3.49124
G1 X125.505 Y119.857 E3.60818
G1 X125.893 Y122.341 E3.72525
G1 X126.356 Y124.832 E3.84323
G1 X126.587 Y125.907 E3.89443
G1 X126.779 Y126.866 E3.93997
G1 X126.926 Y127.825 E3.98514
G1 X126.985 Y128.673 E4.02473
G1 X127 Y129.33 E4.05533
G1 X126.999 Y140.4 E4.57079
G1 X126.988 Y141.163 E4.60632
G1 X126.931 Y142.136 E4.65171
G1 X126.786 Y143.099 E4.69706
G1 X126.557 Y144.045 E4.74238
G1 X126.246 Y144.969 E4.78777
G1 X125.854 Y145.86 E4.8331
G1 X125.386 Y146.712 E4.87837
G1 X124.864 Y147.493 E4.92211
G1 X124.231 Y148.278 E4.96906
G1 X123.606 Y148.929 E5.01109
G1 X122.817 Y149.617 E5.05983
G1 X122.057 Y150.167 E5.10351
G1 X121.19 Y150.684 E5.15052
G1 X120.312 Y151.106 E5.19588
G1 X119.401 Y151.448 E5.24119
G1 X118.462 Y151.709 E5.28657
G1 X117.496 Y151.887 E5.33231
G1 X116.345 Y151.985 E5.3861
G1 X115.67 Y152 E5.41754
G1 X104.564 Y151.999 E5.93468
G1 X103.831 Y151.988 E5.96881
G1 X102.859 Y151.931 E6.01415
G1 X101.896 Y151.785 E6.05951
G1 X100.95 Y151.556 E6.10483
G1 X100.026 Y151.244 E6.15024
G1 X99.136 Y150.852 E6.19552
G1 X98.313 Y150.401 E6.23922
G1 X97.474 Y149.84 E6.28622
G1 X96.77 Y149.274 E6.32828
G1 X96.017 Y148.549 E6.37695
G1 X95.38 Y147.813 E6.42228
G1 X94.85 Y147.082 E6.46432
G1 X94.314 Y146.185 E6.51298
G1 X93.892 Y145.307 E6.55834
G1 X93.55 Y144.395 E6.60369
G1 X93.29 Y143.457 E6.64902
G1 X93.112 Y142.488 E6.69489
G1 X93.014 Y141.309 E6.74998
G1 X93 Y140.658 E6.7803
G1 X93.001 Y129.521 E7.29889
G1 X93.015 Y128.771 E7.33382
G1 X93.079 Y127.795 E7.37936
G1 X93.259 Y126.678 E7.43204
G1 X93.374 Y126.145 E7.45743
G1 X93.888 Y123.58 E7.57925
G1 X94.316 Y121.078 E7.69744
G1 X94.664 Y118.627 E7.81272
G1 X94.945 Y116.142 E7.92916
G1 X95.163 Y113.589 E8.04848
G1 X95.303 Y111.093 E8.16488
G1 X95.374 Y108.567 E8.28255
G1 X95.374 Y106.055 E8.39952
G1 X95.301 Y103.537 E8.51682
G1 X95.158 Y101.021 E8.63416
G1 X94.946 Y98.505 E8.75173
G1 X94.664 Y96.041 E8.86722
G1 X94.305 Y93.518 E8.98588
G1 X93.886 Y91.082 E9.10098
G1 X93.606 Y89.717 E9.16586
G1 X93.563 Y89.449 E9.1785
G1 X93.328 Y88.273 E9.23434
G1 X93.178 Y87.258 E9.28212
G1 X93.068 Y86.143 E9.33429
G1 X93.016 Y85.171 E9.37961
G1 X93.048 Y84.227 E9.4236
G1 X93.116 Y83.363 E9.46395
G1 X93.194 Y82.613 E9.49906
G1 X93.343 Y81.656 E9.54416
G1 X93.541 Y80.833 E9.58358
G1 X93.792 Y79.969 E9.62547
G1 X94.001 Y79.32 E9.65722
G1 X94.326 Y78.443 E9.70077
G1 X94.679 Y77.685 E9.73971
G1 X95.113 Y76.854 E9.78336
G1 X95.429 Y76.286 E9.81363
G1 X95.903 Y75.517 E9.85569
G1 X96.41 Y74.826 E9.8956
G0 F6000 X96.723 Y75.075
G1 F900 X97.092 Y74.61 E9.92324
G1 X97.677 Y73.911 E9.96568
G1 X98.29 Y73.248 E10.00773
G1 X98.922 Y72.668 E10.04767
G1 X99.591 Y72.109 E10.08827
G1 X100.086 Y71.715 E10.11773
G1 X100.844 Y71.166 E10.16131
G1 X101.526 Y70.752 E10.19846
G1 X102.286 Y70.336 E10.2388
G1 X102.853 Y70.044 E10.2685
G1 X103.719 Y69.646 E10.31288
G1 X104.434 Y69.386 E10.3483
G1 X105.285 Y69.116 E10.38988
G1 X105.925 Y68.932 E10.42088
G1 X106.803 Y68.721 E10.46293
G1 X107.677 Y68.587 E10.5041
G1 X108.526 Y68.496 E10.54386
G1 X109.124 Y68.446 E10.57181
G1 X110.06 Y68.41 E10.61542
G1 X110.856 Y68.444 E10.65252
G1 X111.397 Y68.488 E10.6778
G1 X112.382 Y68.596 E10.72394
G1 X113.307 Y68.743 E10.76755
G1 X114.117 Y68.942 E10.80639
G1 X114.976 Y69.195 E10.84808
G1 X115.527 Y69.372 E10.87503
G1 X116.404 Y69.697 E10.91858
G1 X117.104 Y70.024 E10.95456
G1 X117.934 Y70.455 E10.99811
G1 X118.468 Y70.75 E11.02651
G1 X119.267 Y71.24 E11.07016
G1 X119.937 Y71.732 E11.10886
G1 X120.658 Y72.313 E11.15198
G1 X121.115 Y72.702 E11.17993
G1 X121.801 Y73.34 E11.22355
G1 X122.337 Y73.928 E11.2606
G1 X122.898 Y74.598 E11.30129
G1 X123.29 Y75.091 E11.33062
G1 X123.82 Y75.822 E11.37266
G1 X124.261 Y76.55 E11.41229
G1 X124.661 Y77.282 E11.45113
G1 X124.959 Y77.859 E11.48137
G1 X125.351 Y78.71 E11.525
G1 X125.62 Y79.446 E11.56149
G1 X125.885 Y80.287 E11.60255
G1 X126.068 Y80.924 E11.63341
G1 X126.279 Y81.802 E11.67546
G1 X126.411 Y82.663 E11.71602
G1 X126.503 Y83.52 E11.75615
G1 X126.547 Y84.043 E11.78059
G1 X126.584 Y84.977 E11.82412
G1 X126.553 Y85.742 E11.85977
G1 X126.482 Y86.657 E11.9025
G1 X126.404 Y87.388 E11.93673
G1 X126.263 Y88.28 E11.97878
G1 X125.984 Y89.654 E12.04407
G1 X125.5 Y92.248 E12.16694
G1 X125.112 Y94.731 E12.28396
G1 X124.793 Y97.218 E12.40072
G1 X124.54 Y99.768 E12.52004
G1 X124.365 Y102.238 E12.63534
G1 X124.255 Y104.812 E12.75531
G1 X124.219 Y107.328 E12.87247
G1 X124.255 Y109.846 E12.98973
G1 X124.362 Y112.399 E13.10872
G1 X124.539 Y114.888 E13.22491
G1 X124.789 Y117.417 E13.34324
G1 X125.108 Y119.908 E13.46018
G1 X125.5 Y122.414 E13.57829
G1 X125.965 Y124.916 E13.69679
G1 X126.195 Y125.986 E13.74775
G1 X126.384 Y126.927 E13.79244
G1 X126.527 Y127.853 E13.83607
G1 X126.585 Y128.682 E13.87477
G1 X126.6 Y129.33 E13.90495
G1 X126.599 Y140.395 E14.42018
G1 X126.589 Y141.14 E14.45488
G1 X126.535 Y142.077 E14.49858
G1 X126.397 Y143.006 E14.54231
G1 X126.178 Y143.918 E14.58599
G1 X125.88 Y144.808 E14.62969
G1 X125.503 Y145.668 E14.67341
G1 X125.053 Y146.49 E14.71705
G1 X124.531 Y147.271 E14.76079
G1 X123.942 Y148.001 E14.80447
G1 X123.317 Y148.652 E14.84649
G1 X122.582 Y149.293 E14.8919
G1 X121.822 Y149.843 E14.93559
G1 X121.016 Y150.324 E14.97929
G1 X120.171 Y150.732 E15.02298
G1 X119.293 Y151.063 E15.06668
G1 X118.389 Y151.316 E15.11039
G1 X117.462 Y151.488 E15.15429
G1 X116.311 Y151.586 E15.20808
G1 X115.67 Y151.6 E15.23793
G1 X104.57 Y151.599 E15.7548
G1 X103.854 Y151.589 E15.78814
G1 X102.918 Y151.535 E15.8318
G1 X101.989 Y151.396 E15.87554
G1 X101.077 Y151.177 E15.91921
G1 X100.187 Y150.878 E15.96293
G1 X99.328 Y150.501 E16.00661
G1 X98.505 Y150.05 E16.05031
G1 X97.725 Y149.528 E16.09401
G1 X97.021 Y148.962 E16.13607
G1 X96.319 Y148.287 E16.18142
G1 X95.704 Y147.578 E16.22512
G1 X95.174 Y146.847 E16.26717
G1 X94.674 Y146.011 E16.31253
G1 X94.266 Y145.166 E16.35622
G1 X93.935 Y144.288 E16.39991
G1 X93.683 Y143.384 E16.44361
G1 X93.511 Y142.455 E16.4876
G1 X93.413 Y141.276 E16.54269
G1 X93.4 Y140.658 E16.57148
G1 X93.401 Y129.528 E17.08974
G1 X93.414 Y128.797 E17.12378
G1 X93.474 Y127.858 E17.16759
G1 X93.65 Y126.762 E17.21928
G1 X93.765 Y126.229 E17.24467
G1 X94.28 Y123.659 E17.36672
G1 X94.71 Y121.145 E17.48548
G1 X95.06 Y118.683 E17.60128
G1 X95.344 Y116.176 E17.71876
G1 X95.561 Y113.623 E17.83807
G1 X95.703 Y111.104 E17.95555
G1 X95.774 Y108.578 E18.07321
G1 X95.774 Y106.055 E18.1907
G1 X95.701 Y103.525 E18.30855
G1 X95.557 Y100.987 E18.42692
G1 X95.344 Y98.471 E18.5445
G1 X95.06 Y95.985 E18.66101
G1 X94.701 Y93.462 E18.77967
G1 X94.278 Y91.001 E18.89595
G1 X94.001 Y89.654 E18.95998
G1 X93.958 Y89.386 E18.97262
G1 X93.724 Y88.214 E19.02827
G1 X93.576 Y87.218 E19.07516
G1 X93.467 Y86.121 E19.12649
G1 X93.416 Y85.184 E19.17019
G1 X93.447 Y84.258 E19.21333
G1 X93.514 Y83.404 E19.25322
G1 X93.589 Y82.674 E19.28739
G1 X93.732 Y81.749 E19.33097
G1 X93.925 Y80.945 E19.36947
G1 X94.173 Y80.091 E19.41088
G1 X94.376 Y79.459 E19.44179
G1 X94.689 Y78.612 E19.48384
G1 X95.034 Y77.87 E19.52194
G1 X95.463 Y77.048 E19.56511
G1 X95.77 Y76.496 E19.59453
G1 X96.244 Y75.727 E19.63659
G1 X96.723 Y75.075 E19.67426
G0 F6000 X97.036 Y75.324
G1 F900 X97.399 Y74.867 E19.70144
G1 X97.971 Y74.183 E19.74296
G1 X98.584 Y73.52 E19.785
G1 X99.179 Y72.975 E19.82257
G1 X99.84 Y72.422 E19.8627
G1 X100.321 Y72.039 E19.89133
G1 X101.052 Y71.508 E19.93341
G1 X101.718 Y71.103 E19.9697
G1 X102.469 Y70.692 E20.00956
G1 X103.036 Y70.4 E20.03926
G1 X103.856 Y70.022 E20.08131
G1 X104.555 Y69.767 E20.11595
G1 X105.396 Y69.5 E20.15704
G1 X106.018 Y69.321 E20.18718
G1 X106.896 Y69.11 E20.22923
G1 X107.72 Y68.985 E20.26803
G1 X108.56 Y68.895 E20.30737
G1 X109.14 Y68.846 E20.33447
G1 X110.043 Y68.81 E20.37656
G1 X110.824 Y68.843 E20.41295
G1 X111.354 Y68.886 E20.43771
G1 X112.32 Y68.991 E20.48296
G1 X113.212 Y69.132 E20.52501
G1 X114.004 Y69.326 E20.56298
G1 X114.854 Y69.576 E20.60424
G1 X115.388 Y69.747 E20.63035
G1 X116.235 Y70.06 E20.67239
G1 X116.92 Y70.379 E20.70758
G1 X117.741 Y70.805 E20.75065
G1 X118.259 Y71.091 E20.7782
G1 X119.03 Y71.562 E20.82027
G1 X119.686 Y72.044 E20.85817
G1 X120.399 Y72.618 E20.9008
G1 X120.843 Y72.995 E20.92792
G1 X121.505 Y73.609 E20.96996
G1 X122.03 Y74.185 E21.00625
G1 X122.585 Y74.847 E21.04648
G1 X122.966 Y75.326 E21.07498
G1 X123.496 Y76.057 E21.11702
G1 X123.91 Y76.742 E21.15429
G1 X124.306 Y77.466 E21.19272
G1 X124.596 Y78.027 E21.22212
G1 X124.975 Y78.847 E21.26419
G1 X125.244 Y79.583 E21.30067
G1 X125.501 Y80.398 E21.34047
G1 X125.679 Y81.017 E21.37046
G1 X125.89 Y81.895 E21.4125
G1 X126.013 Y82.706 E21.4507
G1 X126.104 Y83.554 E21.49041
G1 X126.147 Y84.059 E21.51401
G1 X126.184 Y84.961 E21.55605
G1 X126.154 Y85.711 E21.591
G1 X126.084 Y86.615 E21.63322
G1 X126.009 Y87.326 E21.66651
G1 X125.871 Y88.2 E21.70771
G1 X125.592 Y89.574 E21.773
G1 X125.107 Y92.175 E21.8962
G1 X124.715 Y94.68 E22.01426
G1 X124.396 Y97.167 E22.13102
G1 X124.142 Y99.729 E22.2509
G1 X123.965 Y102.221 E22.36723
G1 X123.855 Y104.795 E22.48719
G1 X123.819 Y107.322 E22.60487
G1 X123.855 Y109.863 E22.7232
G1 X123.962 Y112.416 E22.84219
G1 X124.141 Y114.927 E22.95941
G1 X124.392 Y117.468 E23.0783
G1 X124.711 Y119.959 E23.19524
G1 X125.107 Y122.487 E23.31439
G1 X125.574 Y125 E23.43341
G1 X125.803 Y126.065 E23.48413
G1 X125.989 Y126.989 E23.52802
G1 X126.128 Y127.881 E23.57006
G1 X126.185 Y128.691 E23.60787
G1 X126.2 Y129.33 E23.63763
G1 X126.199 Y140.39 E24.15263
G1 X126.19 Y141.117 E24.18649
G1 X126.139 Y142.019 E24.22855
G1 X126.008 Y142.913 E24.27063
G1 X125.799 Y143.791 E24.31265
G1 X125.513 Y144.648 E24.35472
G1 X125.152 Y145.476 E24.39678
G1 X124.72 Y146.268 E24.43879
G1 X124.219 Y147.02 E24.48087
G1 X123.653 Y147.724 E24.52293
G1 X123.028 Y148.375 E24.56495
G1 X122.347 Y148.969 E24.60703
G1 X121.616 Y149.5 E24.6491
G1 X120.842 Y149.964 E24.69112
G1 X120.029 Y150.358 E24.73319
G1 X119.185 Y150.678 E24.77522
G1 X118.315 Y150.923 E24.81731
G1 X117.428 Y151.089 E24.85932
G1 X116.277 Y151.187 E24.91311
G1 X115.67 Y151.2 E24.94138
G1 X104.575 Y151.199 E25.45801
G1 X103.877 Y151.19 E25.49052
G1 X102.976 Y151.139 E25.53254
G1 X102.082 Y151.007 E25.57462
G1 X101.204 Y150.798 E25.61665
G1 X100.347 Y150.511 E25.65873
G1 X99.52 Y150.15 E25.70075
G1 X98.727 Y149.717 E25.74282
G1 X97.976 Y149.216 E25.78486
G1 X97.272 Y148.65 E25.82692
G1 X96.621 Y148.024 E25.86897
G1 X96.028 Y147.343 E25.91102
G1 X95.498 Y146.612 E25.95306
G1 X95.034 Y145.837 E25.99512
G1 X94.64 Y145.024 E26.03719
G1 X94.32 Y144.18 E26.07922
G1 X94.076 Y143.31 E26.1213
G1 X93.91 Y142.422 E26.16336
G1 X93.813 Y141.267 E26.21733
G1 X93.8 Y140.658 E26.2457
G1 X93.801 Y129.535 E26.76363
G1 X93.813 Y128.822 E26.79683
G1 X93.869 Y127.921 E26.83887
G1 X94.041 Y126.846 E26.88956
G1 X94.156 Y126.313 E26.91495
G1 X94.672 Y123.738 E27.03724
G1 X95.104 Y121.212 E27.15657
G1 X95.456 Y118.739 E27.27288
G1 X95.743 Y116.21 E27.3914
G1 X95.959 Y113.657 E27.5107
G1 X96.103 Y111.115 E27.62926
G1 X96.174 Y108.589 E27.74693
G1 X96.174 Y106.055 E27.86492
G1 X96.101 Y103.514 E27.98329
G1 X95.956 Y100.953 E28.10273
G1 X95.742 Y98.437 E28.22031
G1 X95.456 Y95.929 E28.33785
G1 X95.097 Y93.406 E28.45651
G1 X94.67 Y90.92 E28.57397
G1 X94.396 Y89.591 E28.63715
G1 X94.353 Y89.323 E28.64979
G1 X94.12 Y88.155 E28.70525
G1 X93.974 Y87.178 E28.75125
G1 X93.866 Y86.099 E28.80174
G1 X93.816 Y85.197 E28.84381
G1 X93.846 Y84.289 E28.88611
G1 X93.912 Y83.444 E28.92558
G1 X93.984 Y82.735 E28.95876
G1 X94.121 Y81.842 E29.00083
G1 X94.309 Y81.057 E29.03842
G1 X94.554 Y80.213 E29.07934
G1 X94.751 Y79.598 E29.10941
G1 X95.064 Y78.751 E29.15145
G1 X95.389 Y78.055 E29.18722
G1 X95.812 Y77.243 E29.22986
G1 X96.111 Y76.706 E29.25848
G1 X96.585 Y75.937 E29.30054
G1 X97.036 Y75.324 E29.33598
G1 F2700 E24.33598
;MESH:stojak-przyprawy.stl
G0 F6000 X103.89 Y82.355
G0 X104.846 Y82.866
G0 X105.399 Y85.915
G0 X105.667 Y86.795
G0 X106.099 Y87.606
G0 X106.683 Y88.317
G0 X107.394 Y88.901
G0 X109.974 Y90.151
G0 X110 Y89.887
;TYPE:WALL-INNER
G1 F2700 E29.33598
G1 F762.7 X109.05 Y89.795 E29.38842
G1 X108.133 Y89.516 E29.44108
G1 X107.285 Y89.063 E29.49391
G1 X106.544 Y88.453 E29.54665
G1 X105.935 Y87.713 E29.5993
G1 X105.485 Y86.869 E29.65186
G1 X105.205 Y85.949 E29.7047
G1 X105.113 Y84.995 E29.75736
G1 X105.206 Y84.047 E29.8097
G1 X105.487 Y83.127 E29.86255
G1 X105.936 Y82.286 E29.91494
G1 X106.546 Y81.545 E29.96767
G1 F761.1 X107.284 Y80.938 E30.02029
G1 F762.7 X108.132 Y80.485 E30.07311
G1 X109.049 Y80.206 E30.12578
G1 X110 Y80.113 E30.17828
G1 X110.95 Y80.205 E30.23072
G1 F764.3 X111.867 Y80.485 E30.28329
G1 X112.715 Y80.937 E30.33598
G1 X113.457 Y81.547 E30.38865
G1 F762.7 X114.065 Y82.287 E30.44127
G1 X114.514 Y83.131 E30.4938
G1 F761.1 X114.794 Y84.051 E30.54675
G1 F762.7 X114.887 Y85.005 E30.59942
G1 X114.794 Y85.953 E30.65176
G1 X114.513 Y86.873 E30.70461
G1 X114.064 Y87.714 E30.75699
G1 F764.3 X113.457 Y88.457 E30.8096
G1 X112.717 Y89.063 E30.86204
G1 F762.7 X111.868 Y89.514 E30.91486
G1 X110.951 Y89.795 E30.96756
G1 X110 Y89.887 E31.02006
G0 F6000 X110 Y90.361
G1 F762.7 X111.043 Y90.258 E31.07765
G1 X112.048 Y89.952 E31.13537
G1 X112.98 Y89.455 E31.19341
G1 X113.789 Y88.79 E31.25095
